; generated by Slic3r 1.2.9 on 2015-11-02 at 20:02:57

; external perimeters extrusion width = 0.40mm
; perimeters extrusion width = 0.67mm
; infill extrusion width = 0.67mm
; solid infill extrusion width = 0.67mm
; top infill extrusion width = 0.67mm

M107
M190 S100 ; set bed temperature
M104 S235 ; set temperature
G28 ; home all axes
G29;
M109 S235 ; wait for temperature to be reached
G21 ; set units to millimeters
G90 ; use absolute coordinates
M82 ; use absolute distances for extrusion
G92 E0
G1 E-2.00000 F3000.00000
G92 E0
G1 Z0.400 F9000.000
G1 X75.835 Y91.319 F9000.000
G1 E2.00000 F3000.00000
G1 X76.630 Y90.666 E2.12223 F1800.000
G1 X77.678 Y89.966 E2.27190
G1 X78.586 Y89.480 E2.39413
G1 X79.319 Y89.146 E2.48981
G1 X98.328 Y81.872 E4.90707
G1 X101.690 Y80.647 E5.33206
G1 X102.772 Y80.357 E5.46515
G1 X105.467 Y79.882 E5.79012
G1 X106.583 Y79.784 E5.92318
G1 X110.056 Y79.784 E6.33565
G1 X112.255 Y80.172 E6.60079
G1 X115.518 Y81.360 E7.01326 F1800.000
G1 X116.534 Y81.833 E7.14634
G1 X118.903 Y83.202 E7.47132
G1 X119.821 Y83.844 E7.60439
G1 X122.482 Y86.077 E8.01685
G1 X123.917 Y87.787 E8.28199
G1 X125.653 Y90.794 E8.69446
G1 X126.127 Y91.810 E8.82755
G1 X127.063 Y94.381 E9.15251
G1 X127.353 Y95.463 E9.28558
G1 X127.956 Y98.884 E9.69804
G1 X127.956 Y101.116 E9.96320
G1 X127.353 Y104.537 E10.37567
G1 X127.063 Y105.619 E10.50874
G1 X126.127 Y108.190 E10.83370
G1 X125.653 Y109.206 E10.96679
G1 X123.917 Y112.213 E11.37925
G1 X122.482 Y113.923 E11.64439
G1 X119.821 Y116.156 E12.05686
G1 X118.903 Y116.798 E12.18993
G1 X116.534 Y118.167 E12.51490
G1 X115.518 Y118.640 E12.64799
G1 X112.255 Y119.828 E13.06045
G1 X110.056 Y120.216 E13.32560
G1 X106.583 Y120.216 E13.73807
G1 X105.467 Y120.118 E13.87114
G1 X102.772 Y119.643 E14.19610
G1 X101.690 Y119.353 E14.32918
G1 X98.328 Y118.128 E14.75418
G1 X79.319 Y110.854 E17.17144
G1 X78.586 Y110.520 E17.26712
G1 X77.678 Y110.034 E17.38935
G1 X76.630 Y109.334 E17.53901
G1 X75.835 Y108.681 E17.66125
G1 X74.944 Y107.790 E17.81090
G1 X74.291 Y106.995 E17.93314
G1 X73.591 Y105.947 E18.08280
G1 X73.105 Y105.039 E18.20503
G1 X72.623 Y103.875 E18.35470
G1 X72.324 Y102.890 E18.47694
G1 X72.079 Y101.654 E18.62659
G1 X71.978 Y100.630 E18.74882
G1 X71.978 Y99.370 E18.89848
G1 X72.079 Y98.346 E19.02072
G1 X72.324 Y97.110 E19.17038
G1 X72.623 Y96.125 E19.29261
G1 X73.105 Y94.961 E19.44228
G1 X73.591 Y94.053 E19.56451
G1 X74.291 Y93.005 E19.71417
G1 X74.944 Y92.210 E19.83640
G1 X75.792 Y91.361 E19.97894
G1 X76.288 Y91.871 F9000.000
G1 X77.083 Y91.218 E20.10117 F1800.000
G1 X78.015 Y90.595 E20.23421
G1 X78.922 Y90.110 E20.35644
G1 X79.574 Y89.813 E20.44149
G1 X98.583 Y82.539 E22.85875
G1 X101.934 Y81.318 E23.28235
G1 X102.896 Y81.060 E23.40065
G1 X105.591 Y80.585 E23.72562
G1 X106.583 Y80.499 E23.84390
G1 X110.056 Y80.499 E24.25637
G1 X112.010 Y80.843 E24.49206
G1 X115.274 Y82.031 E24.90452 F1800.000
G1 X116.177 Y82.452 E25.02283
G1 X118.546 Y83.820 E25.34780
G1 X119.362 Y84.391 E25.46609
G1 X122.023 Y86.624 E25.87855
G1 X123.298 Y88.144 E26.11423
G1 X125.035 Y91.152 E26.52670
G1 X125.456 Y92.054 E26.64500
G1 X126.391 Y94.625 E26.96996
G1 X126.649 Y95.588 E27.08825
G1 X127.252 Y99.008 E27.50072
G1 X127.252 Y100.992 E27.73642
G1 X126.649 Y104.412 E28.14888
G1 X126.391 Y105.375 E28.26717
G1 X125.456 Y107.946 E28.59213
G1 X125.035 Y108.848 E28.71043
G1 X123.298 Y111.856 E29.12290
G1 X122.023 Y113.376 E29.35858
G1 X119.362 Y115.609 E29.77105
G1 X118.546 Y116.180 E29.88933
G1 X116.177 Y117.548 E30.21431
G1 X115.274 Y117.969 E30.33261
G1 X112.010 Y119.157 E30.74507
G1 X110.056 Y119.501 E30.98076
G1 X106.583 Y119.501 E31.39323
G1 X105.591 Y119.415 E31.51152
G1 X102.896 Y118.940 E31.83648
G1 X101.934 Y118.682 E31.95478
G1 X98.583 Y117.461 E32.37838
G1 X79.574 Y110.187 E34.79564
G1 X78.922 Y109.890 E34.88069
G1 X78.015 Y109.405 E35.00292
G1 X77.083 Y108.782 E35.13596
G1 X76.288 Y108.129 E35.25819
G1 X75.496 Y107.337 E35.39122
G1 X74.843 Y106.542 E35.51346
G1 X74.220 Y105.610 E35.64650
G1 X73.735 Y104.703 E35.76873
G1 X73.307 Y103.668 E35.90176
G1 X73.008 Y102.683 E36.02400
G1 X72.789 Y101.584 E36.15703
G1 X72.688 Y100.560 E36.27926
G1 X72.688 Y99.440 E36.41229
G1 X72.789 Y98.416 E36.53453
G1 X73.008 Y97.317 E36.66756
G1 X73.307 Y96.332 E36.78979
G1 X73.735 Y95.297 E36.92284
G1 X74.220 Y94.390 E37.04507
G1 X74.843 Y93.458 E37.17810
G1 X75.496 Y92.663 E37.30034
G1 X76.245 Y91.913 E37.42624
G1 E35.42624 F3000.00000
G92 E0
G1 X110.864 Y102.967 F9000.000
G1 E2.00000 F3000.00000
G1 X110.053 Y103.633 E2.12469 F900.000
G1 X109.297 Y104.037 E2.22643
G1 X108.477 Y104.286 E2.32816
G1 X107.625 Y104.370 E2.42989
G1 X106.773 Y104.286 E2.53161
G1 X105.953 Y104.037 E2.63335
G1 X105.197 Y103.633 E2.73508
G1 X104.535 Y103.090 E2.83681
G1 X103.992 Y102.428 E2.93855
G1 X103.588 Y101.672 E3.04028
G1 X103.339 Y100.852 E3.14201
G1 X103.255 Y100.000 E3.24374
G1 X103.339 Y99.148 E3.34548
G1 X103.588 Y98.328 E3.44721
G1 X103.992 Y97.572 E3.54894
G1 X104.535 Y96.910 E3.65067
G1 X105.197 Y96.367 E3.75241
G1 X105.953 Y95.963 E3.85414
G1 X106.773 Y95.714 E3.95587
G1 X107.611 Y95.632 E4.05598
G1 X108.476 Y95.714 E4.15907
G1 X109.297 Y95.963 E4.26103
G1 X110.053 Y96.367 E4.36277
G1 X110.864 Y97.033 E4.48746
G1 X110.864 Y102.907 E5.18511
G1 X110.150 Y102.629 F9000.000
G1 X109.654 Y103.036 E5.26133 F900.000
G1 X109.023 Y103.374 E5.34636
G1 X108.337 Y103.582 E5.43139
G1 X107.625 Y103.652 E5.51640
G1 X106.913 Y103.582 E5.60142
G1 X106.227 Y103.374 E5.68645
G1 X105.596 Y103.036 E5.77148
G1 X105.043 Y102.582 E5.85650
G1 X104.588 Y102.029 E5.94153
G1 X104.251 Y101.398 E6.02655
G1 X104.043 Y100.712 E6.11158
G1 X103.973 Y100.000 E6.19660
G1 X104.043 Y99.288 E6.28163
G1 X104.251 Y98.602 E6.36665
G1 X104.588 Y97.971 E6.45167
G1 X105.043 Y97.418 E6.53670
G1 X105.596 Y96.964 E6.62173
G1 X106.227 Y96.626 E6.70675
G1 X106.913 Y96.418 E6.79178
G1 X107.613 Y96.349 E6.87533
G1 X108.337 Y96.418 E6.96171
G1 X109.023 Y96.626 E7.04682
G1 X109.654 Y96.964 E7.13185
G1 X110.150 Y97.371 E7.20807
G1 X110.150 Y102.569 E7.82549
G1 X110.327 Y102.988 F9000.000
G1 X115.477 Y109.371 F9000.000
G1 X114.874 Y110.416 E7.96874 F1200.000
G1 X113.021 Y111.485 E8.22279
G1 X111.815 Y111.485 E8.36605
G1 X109.850 Y112.620 E8.63548
G1 X107.616 Y112.226 E8.90492
G1 X106.483 Y112.638 E9.04817
G1 X104.376 Y112.267 E9.30221
G1 X103.452 Y111.492 E9.44546
G1 X101.218 Y111.098 E9.71490
G1 X99.760 Y109.360 E9.98434
G1 X98.626 Y108.947 E10.12759
G1 X97.251 Y107.308 E10.38164
G1 X97.042 Y106.121 E10.52489
G1 X95.583 Y104.383 E10.79432
G1 X95.583 Y102.114 E11.06377
G1 X94.980 Y101.070 E11.20702
G1 X94.980 Y98.930 E11.46106
G1 X95.583 Y97.886 E11.60431
G1 X95.583 Y95.617 E11.87375
G1 X97.042 Y93.879 E12.14318
G1 X97.251 Y92.692 E12.28643
G1 X98.626 Y91.053 E12.54049
G1 X99.760 Y90.640 E12.68374
G1 X101.218 Y88.902 E12.95317
G1 X103.452 Y88.508 E13.22262
G1 X104.376 Y87.733 E13.36586
G1 X106.483 Y87.362 E13.61991
G1 X107.616 Y87.774 E13.76316
G1 X109.850 Y87.380 E14.03260 F1200.000
G1 X111.815 Y88.515 E14.30203
G1 X113.021 Y88.515 E14.44528
G1 X114.874 Y89.584 E14.69933
G1 X115.477 Y90.629 E14.84259
G1 X117.441 Y91.763 E15.11202
G1 X118.217 Y93.895 E15.38146
G1 X119.141 Y94.670 E15.52471
G1 X119.873 Y96.680 E15.77876
G1 X119.663 Y97.868 E15.92200
G1 X120.439 Y100.000 E16.19144
G1 X119.663 Y102.132 E16.46087
G1 X119.873 Y103.320 E16.60412
G1 X119.141 Y105.330 E16.85817
G1 X118.217 Y106.105 E17.00142
G1 X117.441 Y108.237 E17.27086
G1 X115.529 Y109.341 E17.53316
G1 X115.999 Y109.894 F9000.000
G1 X115.396 Y110.939 E17.67642 F900.000
G1 X113.212 Y112.199 E17.97592
G1 X112.006 Y112.199 E18.11918
G1 X109.982 Y113.368 E18.39675
G1 X107.680 Y112.962 E18.67434
G1 X106.547 Y113.375 E18.81758
G1 X104.064 Y112.937 E19.11709
G1 X103.140 Y112.162 E19.26033
G1 X100.838 Y111.756 E19.53792
G1 X99.336 Y109.965 E19.81550
G1 X98.202 Y109.553 E19.95875
G1 X96.581 Y107.621 E20.25825
G1 X96.372 Y106.433 E20.40150
G1 X94.869 Y104.643 E20.67908
G1 X94.869 Y102.305 E20.95667
G1 X94.266 Y101.261 E21.09992
G1 X94.266 Y98.739 E21.39942
G1 X94.869 Y97.695 E21.54267
G1 X94.869 Y95.357 E21.82025
G1 X96.372 Y93.567 E22.09783
G1 X96.581 Y92.379 E22.24108
G1 X98.202 Y90.447 E22.54058
G1 X99.336 Y90.035 E22.68383
G1 X100.838 Y88.244 E22.96142
G1 X103.140 Y87.838 E23.23900
G1 X104.064 Y87.063 E23.38225
G1 X106.547 Y86.625 E23.68175
G1 X107.680 Y87.038 E23.82499
G1 X109.982 Y86.632 E24.10258 F900.000
G1 X112.006 Y87.800 E24.38015
G1 X113.212 Y87.800 E24.52341
G1 X115.396 Y89.061 E24.82291
G1 X115.999 Y90.106 E24.96617
G1 X118.024 Y91.275 E25.24374
G1 X118.823 Y93.471 E25.52132
G1 X119.747 Y94.246 E25.66458
G1 X120.609 Y96.616 E25.96408
G1 X120.400 Y97.804 E26.10732
G1 X121.199 Y100.000 E26.38491
G1 X120.400 Y102.196 E26.66249
G1 X120.609 Y103.384 E26.80573
G1 X119.747 Y105.754 E27.10524
G1 X118.823 Y106.529 E27.24849
G1 X118.024 Y108.725 E27.52607
G1 X116.051 Y109.864 E27.79652
G1 X115.606 Y109.825 F9000.000
G1 X105.692 Y112.028 F9000.000
G1 X96.019 Y102.354 E29.46436 F1350.000
G1 X96.019 Y103.391 F9000.000
G1 X103.690 Y111.062 E30.78699 F1350.000
G1 X102.431 Y110.840 F9000.000
G1 X97.470 Y105.879 E31.64234 F1350.000
G1 X98.673 Y108.119 F9000.000
G1 X99.172 Y108.617 E31.72831 F1350.000
G1 X105.096 Y104.174 F9000.000
G1 X111.972 Y111.050 E32.91379 F1350.000
G1 X113.009 Y111.050 E33.04019
G1 X106.690 Y104.731 E34.12972
G1 X107.774 Y104.778 E34.26206
G1 X113.668 Y110.673 E35.27836
G1 X114.326 Y110.293 E35.37089
G1 X108.674 Y104.642 E36.34529
G1 X109.455 Y104.386 E36.44546
G1 X114.819 Y109.750 E37.37034
G1 X115.199 Y109.093 E37.46287
G1 X110.131 Y104.025 E38.33671
G1 X110.715 Y103.573 E38.42682
G1 X115.856 Y108.713 E39.31315
G1 X116.513 Y108.334 E39.40569
G1 X111.285 Y103.105 E40.30716
G1 X111.300 Y102.083 E40.43178
G1 X117.138 Y107.922 E41.43842
G1 X117.415 Y107.161 E41.53704
G1 X111.300 Y101.046 E42.59137
G1 X111.300 Y100.010 E42.71777
G1 X117.691 Y106.401 E43.81981
G1 X118.069 Y105.742 E43.91244
G1 X111.300 Y98.973 E45.07954
G1 X111.300 Y97.936 E45.20595
G1 X118.632 Y105.269 E46.47025
G1 X118.992 Y104.592 E46.56374
G1 X103.345 Y88.945 E49.26146
G1 X103.986 Y88.548 E49.35327
G1 X119.269 Y103.831 E51.98832
G1 X119.318 Y102.844 E52.10888
G1 X104.588 Y88.114 E54.64860
G1 X105.469 Y87.958 E54.75772
G1 X119.351 Y101.841 E57.15128
G1 X119.628 Y101.081 E57.24990
G1 X106.412 Y87.864 E59.52861
G1 X107.752 Y88.168 E59.69619
G1 X119.905 Y100.320 E61.79147
G1 X119.505 Y98.884 E61.97330
G1 X108.634 Y88.013 E63.84765
G1 X109.515 Y87.857 E63.95677
G1 X119.288 Y97.630 E65.64172
G1 X119.327 Y96.633 E65.76340
G1 X111.645 Y88.950 E67.08797
G1 X112.682 Y88.950 E67.21437
G1 X117.725 Y93.993 E68.08390
G1 X117.131 Y92.363 F9000.000
G1 X116.740 Y91.972 E68.15134 F1350.000
G1 X102.464 Y89.101 F9000.000
G1 X108.640 Y95.277 E69.21626 F1350.000
G1 X107.542 Y95.215 E69.35040
G1 X101.583 Y89.256 E70.37788
G1 X101.015 Y89.725 E70.46766
G1 X106.631 Y95.341 E71.43598
G1 X105.842 Y95.589 E71.53681
G1 X100.542 Y90.289 E72.45064
G1 X100.069 Y90.853 E72.54036
G1 X105.167 Y95.950 E73.41926
G1 X104.574 Y96.395 E73.50955
G1 X99.377 Y91.198 E74.40561
G1 X98.697 Y91.554 E74.49924
G1 X104.052 Y96.909 E75.42258
G1 X103.600 Y97.494 E75.51270
G1 X98.222 Y92.116 E76.44004
G1 X97.749 Y92.680 E76.52977
G1 X103.239 Y98.170 E77.47641
G1 X102.983 Y98.951 E77.57658
G1 X97.527 Y93.495 E78.51725
G1 X97.231 Y94.235 E78.61447
G1 X102.847 Y99.851 E79.58274
G1 X102.894 Y100.935 E79.71507
G1 X96.758 Y94.799 E80.77311
G1 X96.285 Y95.363 E80.86283
G1 X103.451 Y102.529 E82.09837
G1 X95.416 Y100.714 F9000.000
G1 X106.804 Y112.103 E84.06197 F1350.000
G1 X107.565 Y111.826 E84.16059
G1 X95.416 Y99.678 E86.25524
G1 X95.524 Y98.749 E86.36923
G1 X108.725 Y111.950 E88.64531
G1 X109.940 Y112.129 E88.79509
G1 X95.904 Y98.092 E91.21531
G1 X96.019 Y97.170 E91.32852
G1 X110.598 Y111.749 E93.84216
G1 X111.255 Y111.370 E93.93469
G1 X96.019 Y96.134 E96.56166
G1 E94.56166 F3000.00000
G92 E0
G1 X87.538 Y101.261 F9000.000
G1 E2.00000 F3000.00000
G1 X87.441 Y101.581 E2.03973 F900.000
G1 X87.059 Y102.295 E2.13589
G1 X86.546 Y102.921 E2.23206
G1 X85.920 Y103.434 E2.32823
G1 X85.206 Y103.816 E2.42439
G1 X84.431 Y104.051 E2.52056
G1 X83.625 Y104.130 E2.61672
G1 X82.819 Y104.051 E2.71289
G1 X82.044 Y103.816 E2.80905
G1 X81.330 Y103.434 E2.90522
G1 X80.704 Y102.921 E3.00138
G1 X80.191 Y102.295 E3.09755
G1 X79.809 Y101.581 E3.19371
G1 X79.574 Y100.806 E3.28988
G1 X79.495 Y100.000 E3.38604
G1 X79.574 Y99.194 E3.48221
G1 X79.809 Y98.419 E3.57838
G1 X80.191 Y97.705 E3.67454
G1 X80.704 Y97.079 E3.77071
G1 X81.330 Y96.566 E3.86687
G1 X82.044 Y96.184 E3.96304
G1 X82.819 Y95.949 E4.05920
G1 X83.625 Y95.870 E4.15537
G1 X84.403 Y95.946 E4.24827
G1 X85.206 Y96.184 E4.34764 F900.000
G1 X85.920 Y96.566 E4.44380
G1 X86.546 Y97.079 E4.53997
G1 X87.059 Y97.705 E4.63613
G1 X87.441 Y98.419 E4.73230
G1 X87.676 Y99.194 E4.82846
G1 X87.755 Y100.000 E4.92463
G1 X87.676 Y100.806 E5.02079
G1 X87.556 Y101.203 E5.07010
G1 X88.222 Y101.468 F9000.000
G1 X88.104 Y101.855 E5.11819 F900.000
G1 X87.656 Y102.693 E5.23106
G1 X87.053 Y103.428 E5.34393
G1 X86.318 Y104.031 E5.45681
G1 X85.480 Y104.479 E5.56968
G1 X84.571 Y104.755 E5.68255
G1 X83.625 Y104.848 E5.79543
G1 X82.679 Y104.755 E5.90830
G1 X81.770 Y104.479 E6.02117
G1 X80.932 Y104.031 E6.13404
G1 X80.197 Y103.428 E6.24692
G1 X79.594 Y102.693 E6.35979
G1 X79.146 Y101.855 E6.47266
G1 X78.870 Y100.946 E6.58554
G1 X78.777 Y100.000 E6.69841
G1 X78.870 Y99.054 E6.81128
G1 X79.146 Y98.145 E6.92415
G1 X79.594 Y97.307 E7.03703
G1 X80.197 Y96.572 E7.14990
G1 X80.932 Y95.969 E7.26277
G1 X81.770 Y95.521 E7.37565
G1 X82.679 Y95.245 E7.48852
G1 X83.625 Y95.152 E7.60139
G1 X84.473 Y95.236 E7.70264
G1 X84.571 Y95.245 E7.71426 F900.000
G1 X85.480 Y95.521 E7.82714
G1 X86.318 Y95.969 E7.94001
G1 X87.053 Y96.572 E8.05288
G1 X87.656 Y97.307 E8.16576
G1 X88.104 Y98.145 E8.27863
G1 X88.380 Y99.054 E8.39150
G1 X88.473 Y100.000 E8.50437
G1 X88.380 Y100.946 E8.61725
G1 X88.239 Y101.410 E8.67491
G1 X87.832 Y101.559 F9000.000
G1 X86.410 Y97.806 F9000.000
G1 X85.819 Y97.215 E8.78375 F1350.000
G1 X83.841 Y96.344 F9000.000
G1 X87.281 Y99.783 E9.41657 F1350.000
G1 X87.245 Y100.854 E9.55597
G1 X82.771 Y96.380 E10.37930
G1 X81.951 Y96.667 E10.49224
G1 X86.958 Y101.674 E11.41346
G1 X86.529 Y102.351 E11.51779
G1 X81.274 Y97.096 E12.48479
G1 X80.721 Y97.649 E12.58657
G1 X85.976 Y102.904 E13.55358
G1 X85.299 Y103.333 E13.65790
G1 X80.292 Y98.326 E14.57912
G1 X80.005 Y99.146 E14.69207
G1 X84.479 Y103.620 E15.51539
G1 X83.408 Y103.656 E15.65479
G1 X79.969 Y100.217 E16.28761
G1 X80.840 Y102.194 F9000.000
G1 X81.431 Y102.785 E16.39644 F1350.000
M106 S84.15
G1 E14.39644 F3000.00000
G92 E0
G1 Z0.600 F9000.000
G1 X110.443 Y102.768 F9000.000
G1 E2.00000 F3000.00000
G1 X109.817 Y103.281 E2.04227 F1610.146
G1 X109.135 Y103.646 E2.08268
G1 X108.395 Y103.870 E2.12310
G1 X107.625 Y103.946 E2.16351
G1 X106.855 Y103.870 E2.20392
G1 X106.115 Y103.646 E2.24434
G1 X105.433 Y103.281 E2.28476
G1 X104.835 Y102.790 E2.32517
G1 X104.344 Y102.192 E2.36559
G1 X103.979 Y101.510 E2.40600
G1 X103.755 Y100.770 E2.44641
G1 X103.679 Y100.000 E2.48683
G1 X103.755 Y99.230 E2.52724
G1 X103.979 Y98.490 E2.56766
G1 X104.344 Y97.808 E2.60807
G1 X104.835 Y97.210 E2.64849
G1 X105.433 Y96.719 E2.68890
G1 X106.115 Y96.354 E2.72932
G1 X106.855 Y96.130 E2.76973
G1 X107.593 Y96.057 E2.80846
G1 X108.392 Y96.129 E2.85037
G1 X109.135 Y96.354 E2.89095
G1 X109.817 Y96.719 E2.93136
G1 X110.443 Y97.232 E2.97363
G1 X110.443 Y102.708 E3.25970
G1 X109.950 Y102.535 F9000.000
G1 X109.542 Y102.869 E3.27536 F1610.146
G1 X108.946 Y103.188 E3.29545
G1 X108.298 Y103.385 E3.31554
G1 X107.625 Y103.451 E3.33562
G1 X106.952 Y103.385 E3.35571
G1 X106.304 Y103.188 E3.37579
G1 X105.708 Y102.869 E3.39588
G1 X105.185 Y102.440 E3.41597
G1 X104.756 Y101.917 E3.43605
G1 X104.437 Y101.321 E3.45614
G1 X104.240 Y100.673 E3.47623
G1 X104.174 Y100.000 E3.49631
G1 X104.240 Y99.327 E3.51640
G1 X104.437 Y98.679 E3.53649
G1 X104.756 Y98.083 E3.55657
G1 X105.185 Y97.560 E3.57666
G1 X105.708 Y97.131 E3.59674
G1 X106.304 Y96.812 E3.61683
G1 X106.952 Y96.615 E3.63692
G1 X107.595 Y96.552 E3.65611
